public/avatar/item1/36.svg

<svg xmlns:xlink="http://www.w3.org/1999/xlink" height="65.4" width="80.15" xmlns="http://www.w3.org/2000/svg"><use height="37" transform="translate(11.9 21.1)" width="55.55" xlink:href="#a"/><defs><g id="a" fill-rule="evenodd"><path d="M.2 19.1q3.05-.65 3.25.55.1.5-1.3 1.4-1.9 1.2-2.6 2.05-3.95 4.8-.9 7.6-.55 1.45 1.6 3.15 2.15 1.7 4.25.9 2.5-1 3.25.3.8 1.4-2.5 3.7-2.9 2.05-5.6 1.75l-2.7-.55-.7 1.3q-.6 1.35-2.65 2.35-5.7 2.7-11.15-4.8-2.65-3.75-2-8.3.7-4.4 3.8-5.65 2.35-.95 5.05.05l3.15.95q.8-.25 1.15-.95l1.8-2.9q1.65-2.2 4.8-2.9" fill="#320000" transform="translate(19.7 -7.3)"/><path d="m2.15 19.95-.65.4-2.65 2.15q-3.05 3.65-2.6 6.05.3 1.2 1.5 2.5l-.05.65q.25 1.25 1.45 2.45 2.75 2.65 5.7 1.45l2.1-.05q.3.6-2.2 2.4-3.15 2.2-6.55 1.25l-1.5-.15q-.7.25-1.1 1.3-.5 1.45-2.4 2.35-5.05 2.5-9.95-4.45-2.95-4.2-1.6-8.75.75-2.85 2.95-3.8 2.2-.9 5.35.5 1.95.85 2.8.55 1.25-.4 1.8-1.6l1.6-2.6q2.35-3.05 6-2.6" fill="#b30002" transform="translate(19.7 -7.3)"/><path d="m32.45 14.7-4.05 4.5-1.25.15-1.65-.2L-1.85 32.2l-1.45-2.9q24.5-11.9 27.35-13.65 1.7-1.05 1.55-1.8l-.2-1.35q3.9-.8 9.7-5.2l.75 2.85-3.4 4.55" fill="#320000" transform="translate(19.7 -7.3)"/><path d="m34.7 8.75.2.75.05.4q-.45 1.35-7.2 8.7l-.25-.15-2.1.1Q21.65 19.9-11.95 36.4l-.9-1.75 37.3-18.45q2.3-1.35 2.05-2.55l-.15-.55-.05-.05.55-.25q6.3-2.9 7.85-4.05" fill="#b3b3b3" transform="translate(19.7 -7.3)"/><path d="m34.5 9.25.1.3.05.25q-.7 1.7-7 5.35-16.9 9.8-39.5 20.85l-.6-1.2L-9 33.1q30.4-14.6 33.65-16.65 2.4-1.45 2.15-2.85l-.1-.35.3-.15 1-.4q4.1-1.75 6.5-3.45" fill="#fff" transform="translate(19.7 -7.3)"/><path d="M-.75 20.65q1.45-.55 2.65-.6l-2.55 1.2q-2.65 1.7-3.1 4.35-.55 3.15-1.3 4.05-.7.85-2.25.4l-3.75.3q-2.2 1.05-2.7 3.75-.75 4 2.65 7.95-5.4-1.55-7-8.3-1.1-4.8 2.1-6.95 2.8-1.85 5.1-.55 4.25 2.5 6.1-1.85 1.15-2.65 4.05-3.75" fill="#ff0002" transform="translate(19.7 -7.3)"/><path d="M-18.2 35.6q-.7-1.8-.7-3.95 0-4.3 3.45-5.85l4.3-.15q1.15.4 1.95.95-1.2-.5-2.7-.65-3.05-.3-4.75 1.5-2.7 2.9-1.55 8.15" fill="#fff2cd" transform="translate(19.7 -7.3)"/><path d="m.75 20.75-2 .55q-2.2.8-3.15 2 .5-.9 1.55-1.75 2.15-1.7 5-1.6l-1.4.8" fill="#ffb" transform="translate(19.7 -7.3)"/><path d="M-10.45 39.2q.25.7-.45 1.05-.85.35-1.1-.35-.35-.65.45-1.05.75-.35 1.1.35m2 .9q.35.65-.45 1.05-.85.3-1.1-.35-.25-.7.45-1.05.85-.35 1.1.35" fill="#fff" transform="translate(19.7 -7.3)"/><path d="m.5 36.45-1.35-2.3 1.25.95q1.4.9 2.4.8l2.65-.6q1.45-.3 1.5.25.15 1.05-3.65 1.95-1.7.4-2.8-1.05" fill="#ffb" transform="translate(19.7 -7.3)"/><path d="m1 35.45.85.3 2.8-.3q2.85-.7 1.85.45-.5.55-2.5.45-2.1-.05-3-.9m-13.75-1-.05-.35 11.3-4.95-11.25 5.3" fill="#fff2cd" transform="translate(19.7 -7.3)"/><path d="m-13 32.9.05-.05.25 1.9q.65 2.1 2.35 3.15-2.8-.3-3-2.7l.35-2.3" fill="#320000" transform="translate(19.7 -7.3)"/></g></defs></svg>

<?xml version="1.0" encoding="UTF-8" standalone="no"?>
<svg xmlns:xlink="http://www.w3.org/1999/xlink" height="65.4px" width="80.15px" xmlns="http://www.w3.org/2000/svg">
  <g transform="matrix(1.0, 0.0, 0.0, 1.0, 31.6, 13.8)">
    <use height="37.0" transform="matrix(1.0, 0.0, 0.0, 1.0, -19.7, 7.3)" width="55.55" xlink:href="#shape0"/>
  </g>
  <defs>
    <g id="shape0" transform="matrix(1.0, 0.0, 0.0, 1.0, 19.7, -7.3)">
      <path d="M0.2 19.1 Q3.25 18.45 3.45 19.65 3.55 20.15 2.15 21.05 0.25 22.25 -0.45 23.1 -4.4 27.9 -1.35 30.7 -1.9 32.15 0.25 33.85 2.4 35.55 4.5 34.75 7.0 33.75 7.75 35.05 8.55 36.45 5.25 38.75 2.35 40.8 -0.35 40.5 L-3.05 39.95 -3.75 41.25 Q-4.35 42.6 -6.4 43.6 -12.1 46.3 -17.55 38.8 -20.2 35.05 -19.55 30.5 -18.85 26.1 -15.75 24.85 -13.4 23.9 -10.7 24.9 L-7.55 25.85 Q-6.75 25.6 -6.4 24.9 L-4.6 22.0 Q-2.95 19.8 0.2 19.1" fill="#320000" fill-rule="evenodd" stroke="none"/>
      <path d="M2.15 19.95 L1.5 20.35 -1.15 22.5 Q-4.2 26.15 -3.75 28.55 -3.45 29.75 -2.25 31.05 L-2.3 31.7 Q-2.05 32.95 -0.85 34.15 1.9 36.8 4.85 35.6 L6.95 35.55 Q7.25 36.15 4.75 37.95 1.6 40.15 -1.8 39.2 L-3.3 39.05 Q-4.0 39.3 -4.4 40.35 -4.9 41.8 -6.8 42.7 -11.85 45.2 -16.75 38.25 -19.7 34.05 -18.35 29.5 -17.6 26.65 -15.4 25.7 -13.2 24.8 -10.05 26.2 -8.1 27.05 -7.25 26.75 -6.0 26.35 -5.45 25.15 L-3.85 22.55 Q-1.5 19.5 2.15 19.95" fill="#b30002" fill-rule="evenodd" stroke="none"/>
      <path d="M32.45 14.7 L28.4 19.2 27.15 19.35 25.5 19.15 -1.85 32.2 -3.3 29.3 Q21.2 17.4 24.05 15.65 25.75 14.6 25.6 13.85 L25.4 12.5 Q29.3 11.7 35.1 7.3 L35.85 10.15 32.45 14.7" fill="#320000" fill-rule="evenodd" stroke="none"/>
      <path d="M34.7 8.75 L34.9 9.5 34.95 9.9 Q34.5 11.25 27.75 18.6 L27.5 18.45 25.4 18.55 Q21.65 19.9 -11.95 36.4 L-12.85 34.65 24.45 16.2 Q26.75 14.85 26.5 13.65 L26.35 13.1 26.3 13.05 26.85 12.8 Q33.15 9.9 34.7 8.75" fill="#b3b3b3" fill-rule="evenodd" stroke="none"/>
      <path d="M34.5 9.25 L34.6 9.55 34.65 9.8 Q33.95 11.5 27.65 15.15 10.75 24.95 -11.85 36.0 L-12.45 34.8 -9.0 33.1 Q21.4 18.5 24.65 16.45 27.05 15.0 26.8 13.6 L26.7 13.25 27.0 13.1 28.0 12.7 Q32.1 10.95 34.5 9.25" fill="#ffffff" fill-rule="evenodd" stroke="none"/>
      <path d="M-0.75 20.65 Q0.7 20.1 1.9 20.05 L-0.65 21.25 Q-3.3 22.95 -3.75 25.6 -4.3 28.75 -5.05 29.65 -5.75 30.5 -7.3 30.05 L-11.05 30.35 Q-13.25 31.4 -13.75 34.1 -14.5 38.1 -11.1 42.05 -16.5 40.5 -18.1 33.75 -19.2 28.95 -16.0 26.8 -13.2 24.95 -10.9 26.25 -6.65 28.75 -4.8 24.4 -3.65 21.75 -0.75 20.65" fill="#ff0002" fill-rule="evenodd" stroke="none"/>
      <path d="M-18.2 35.6 Q-18.9 33.8 -18.9 31.65 -18.9 27.35 -15.45 25.8 L-11.15 25.65 Q-10.0 26.05 -9.2 26.6 -10.4 26.1 -11.9 25.95 -14.95 25.65 -16.65 27.45 -19.35 30.35 -18.2 35.6" fill="#fff2cd" fill-rule="evenodd" stroke="none"/>
      <path d="M0.75 20.75 L-1.25 21.3 Q-3.45 22.1 -4.4 23.3 -3.9 22.4 -2.85 21.55 -0.7 19.85 2.15 19.95 L0.75 20.75" fill="#ffffbb" fill-rule="evenodd" stroke="none"/>
      <path d="M-10.45 39.2 Q-10.2 39.9 -10.9 40.25 -11.75 40.6 -12.0 39.9 -12.35 39.25 -11.55 38.85 -10.8 38.5 -10.45 39.2" fill="#ffffff" fill-rule="evenodd" stroke="none"/>
      <path d="M-8.45 40.1 Q-8.1 40.75 -8.9 41.15 -9.75 41.45 -10.0 40.8 -10.25 40.1 -9.55 39.75 -8.7 39.4 -8.45 40.1" fill="#ffffff" fill-rule="evenodd" stroke="none"/>
      <path d="M0.5 36.45 L-0.85 34.15 0.4 35.1 Q1.8 36.0 2.8 35.9 L5.45 35.3 Q6.9 35.0 6.95 35.55 7.1 36.6 3.3 37.5 1.6 37.9 0.5 36.45" fill="#ffffbb" fill-rule="evenodd" stroke="none"/>
      <path d="M1.0 35.45 L1.85 35.75 4.65 35.45 Q7.5 34.75 6.5 35.9 6.0 36.45 4.0 36.35 1.9 36.3 1.0 35.45" fill="#fff2cd" fill-rule="evenodd" stroke="none"/>
      <path d="M-12.75 34.45 L-12.8 34.1 -1.5 29.15 -12.75 34.45" fill="#fff2cd" fill-rule="evenodd" stroke="none"/>
      <path d="M-13.0 32.9 L-12.95 32.85 -12.7 34.75 Q-12.05 36.85 -10.35 37.9 -13.15 37.6 -13.35 35.2 L-13.0 32.9" fill="#320000" fill-rule="evenodd" stroke="none"/>
    </g>
  </defs>
</svg>
